48x48/apps/gelemental.svg

<svg viewBox="0 0 48 48"><defs><linearGradient id="linearGradient3764" x1="1" x2="47" gradientUnits="userSpaceOnUse" gradientTransform="matrix(0,-1,1,0,-1.5e-6,47.999998)"><stop stop-color="#5e4973" stop-opacity="1"/><stop offset="1" stop-color="#685180" stop-opacity="1"/></linearGradient><clipPath id="clipPath-198664120"><g transform="translate(0,-1004.3622)"><path d="m -24 13 c 0 1.105 -0.672 2 -1.5 2 -0.828 0 -1.5 -0.895 -1.5 -2 0 -1.105 0.672 -2 1.5 -2 0.828 0 1.5 0.895 1.5 2 z" transform="matrix(15.333333,0,0,11.5,414.99999,878.8622)" fill="#1890d0"/></g></clipPath><clipPath id="clipPath-206667731"><g transform="translate(0,-1004.3622)"><path d="m -24 13 c 0 1.105 -0.672 2 -1.5 2 -0.828 0 -1.5 -0.895 -1.5 -2 0 -1.105 0.672 -2 1.5 -2 0.828 0 1.5 0.895 1.5 2 z" transform="matrix(15.333333,0,0,11.5,414.99999,878.8622)" fill="#1890d0"/></g></clipPath></defs><g><path d="m 36.31 5 c 5.859 4.062 9.688 10.831 9.688 18.5 c 0 12.426 -10.07 22.5 -22.5 22.5 c -7.669 0 -14.438 -3.828 -18.5 -9.688 c 1.037 1.822 2.306 3.499 3.781 4.969 c 4.085 3.712 9.514 5.969 15.469 5.969 c 12.703 0 23 -10.298 23 -23 c 0 -5.954 -2.256 -11.384 -5.969 -15.469 c -1.469 -1.475 -3.147 -2.744 -4.969 -3.781 z m 4.969 3.781 c 3.854 4.113 6.219 9.637 6.219 15.719 c 0 12.703 -10.297 23 -23 23 c -6.081 0 -11.606 -2.364 -15.719 -6.219 c 4.16 4.144 9.883 6.719 16.219 6.719 c 12.703 0 23 -10.298 23 -23 c 0 -6.335 -2.575 -12.06 -6.719 -16.219 z" opacity="0.05"/><path d="m 41.28 8.781 c 3.712 4.085 5.969 9.514 5.969 15.469 c 0 12.703 -10.297 23 -23 23 c -5.954 0 -11.384 -2.256 -15.469 -5.969 c 4.113 3.854 9.637 6.219 15.719 6.219 c 12.703 0 23 -10.298 23 -23 c 0 -6.081 -2.364 -11.606 -6.219 -15.719 z" opacity="0.1"/><path d="m 31.25 2.375 c 8.615 3.154 14.75 11.417 14.75 21.13 c 0 12.426 -10.07 22.5 -22.5 22.5 c -9.708 0 -17.971 -6.135 -21.12 -14.75 a 23 23 0 0 0 44.875 -7 a 23 23 0 0 0 -16 -21.875 z" opacity="0.2"/></g><g><path d="m 24 1 c 12.703 0 23 10.297 23 23 c 0 12.703 -10.297 23 -23 23 -12.703 0 -23 -10.297 -23 -23 0 -12.703 10.297 -23 23 -23 z" fill="url(#linearGradient3764)" fill-opacity="1"/></g><g/><g><g clip-path="url(#clipPath-198664120)"><g transform="translate(1,1)"><g opacity="0.1"><!-- color: #685180 --><g><path d="m 18.664 10 c 1.332 1.34 1.324 2.406 1.324 4.02 l 0 3.336 c -4.66 1.563 -7.992 5.77 -7.992 10.734 c 0 4.258 2.469 7.973 6.117 9.926 l 11.77 0 c 3.648 -1.953 6.117 -5.668 6.117 -9.926 c 0 -4.953 -3.344 -9.156 -8 -10.734 l 0 -3.336 c 0 -1.605 -0.008 -2.676 1.324 -4.02 l -10.664 0 m 0.008 0" fill="#000" stroke="none" fill-rule="nonzero" fill-opacity="1"/><path d="m 13.25 23 c -0.801 1.523 -1.25 3.242 -1.25 5.063 c 0 4.254 2.477 7.984 6.125 9.938 l 11.75 0 c 3.648 -1.953 6.125 -5.684 6.125 -9.938 c 0 -1.82 -0.449 -3.539 -1.25 -5.063 m -21.5 0" fill="#000" stroke="none" fill-rule="nonzero" fill-opacity="1"/><path d="m 27 35.5 c 0 0.277 -0.223 0.5 -0.5 0.5 c -0.277 0 -0.5 -0.227 -0.5 -0.5 c 0 -0.277 0.223 -0.5 0.5 -0.5 c 0.277 0 0.5 0.223 0.5 0.5 m 0 0" fill="#000" stroke="none" fill-rule="nonzero" fill-opacity="1"/><path d="m 25.5 33.25 c 0 0.414 -0.336 0.75 -0.75 0.75 c -0.414 0 -0.75 -0.336 -0.75 -0.75 c 0 -0.414 0.336 -0.75 0.75 -0.75 c 0.414 0 0.75 0.336 0.75 0.75 m 0 0" fill="#000" stroke="none" fill-rule="nonzero" fill-opacity="1"/><path d="m 27 30 c 0 0.551 -0.449 1 -1 1 c -0.551 0 -1 -0.449 -1 -1 c 0 -0.555 0.449 -1 1 -1 c 0.551 0 1 0.449 1 1 m 0 0" fill="#000" stroke="none" fill-rule="nonzero" fill-opacity="1"/><path d="m 27 22.5 c 0 0.828 -0.672 1.5 -1.5 1.5 c -0.828 0 -1.5 -0.676 -1.5 -1.5 c 0 -0.828 0.672 -1.5 1.5 -1.5 c 0.828 0 1.5 0.672 1.5 1.5 m 0 0" fill="#000" stroke="none" fill-rule="nonzero" fill-opacity="1"/><path d="m 24.5 26.75 c 0 0.691 -0.559 1.25 -1.25 1.25 c -0.691 0 -1.25 -0.563 -1.25 -1.25 c 0 -0.691 0.559 -1.25 1.25 -1.25 c 0.691 0 1.25 0.563 1.25 1.25 m 0 0" fill="#000" stroke="none" fill-rule="nonzero" fill-opacity="1"/></g></g></g></g></g><g><g clip-path="url(#clipPath-206667731)"><!-- color: #685180 --><g><path d="m 18.664 10 c 1.332 1.34 1.324 2.406 1.324 4.02 l 0 3.336 c -4.66 1.563 -7.992 5.77 -7.992 10.734 c 0 4.258 2.469 7.973 6.117 9.926 l 11.77 0 c 3.648 -1.953 6.117 -5.668 6.117 -9.926 c 0 -4.953 -3.344 -9.156 -8 -10.734 l 0 -3.336 c 0 -1.605 -0.008 -2.676 1.324 -4.02 l -10.664 0 m 0.008 0" fill="#c895e4" stroke="none" fill-rule="nonzero" fill-opacity="1"/><path d="m 13.25 23 c -0.801 1.523 -1.25 3.242 -1.25 5.063 c 0 4.254 2.477 7.984 6.125 9.938 l 11.75 0 c 3.648 -1.953 6.125 -5.684 6.125 -9.938 c 0 -1.82 -0.449 -3.539 -1.25 -5.063 m -21.5 0" fill="#ff9228" stroke="none" fill-rule="nonzero" fill-opacity="1"/><path d="m 27 35.5 c 0 0.277 -0.223 0.5 -0.5 0.5 c -0.277 0 -0.5 -0.227 -0.5 -0.5 c 0 -0.277 0.223 -0.5 0.5 -0.5 c 0.277 0 0.5 0.223 0.5 0.5 m 0 0" fill="#f9f9f9" stroke="none" fill-rule="nonzero" fill-opacity="1"/><path d="m 25.5 33.25 c 0 0.414 -0.336 0.75 -0.75 0.75 c -0.414 0 -0.75 -0.336 -0.75 -0.75 c 0 -0.414 0.336 -0.75 0.75 -0.75 c 0.414 0 0.75 0.336 0.75 0.75 m 0 0" fill="#f9f9f9" stroke="none" fill-rule="nonzero" fill-opacity="1"/><path d="m 27 30 c 0 0.551 -0.449 1 -1 1 c -0.551 0 -1 -0.449 -1 -1 c 0 -0.555 0.449 -1 1 -1 c 0.551 0 1 0.449 1 1 m 0 0" fill="#f9f9f9" stroke="none" fill-rule="nonzero" fill-opacity="1"/><path d="m 27 22.5 c 0 0.828 -0.672 1.5 -1.5 1.5 c -0.828 0 -1.5 -0.676 -1.5 -1.5 c 0 -0.828 0.672 -1.5 1.5 -1.5 c 0.828 0 1.5 0.672 1.5 1.5 m 0 0" fill="#f9f9f9" stroke="none" fill-rule="nonzero" fill-opacity="1"/><path d="m 24.5 26.75 c 0 0.691 -0.559 1.25 -1.25 1.25 c -0.691 0 -1.25 -0.563 -1.25 -1.25 c 0 -0.691 0.559 -1.25 1.25 -1.25 c 0.691 0 1.25 0.563 1.25 1.25 m 0 0" fill="#f9f9f9" stroke="none" fill-rule="nonzero" fill-opacity="1"/></g></g></g><g><path d="m 40.03 7.531 c 3.712 4.084 5.969 9.514 5.969 15.469 0 12.703 -10.297 23 -23 23 c -5.954 0 -11.384 -2.256 -15.469 -5.969 4.178 4.291 10.01 6.969 16.469 6.969 c 12.703 0 23 -10.298 23 -23 0 -6.462 -2.677 -12.291 -6.969 -16.469 z" opacity="0.1"/></g></svg>

<?xml version="1.0" encoding="UTF-8" standalone="no"?>
<svg
   xmlns:dc="http://purl.org/dc/elements/1.1/"
   xmlns:cc="http://creativecommons.org/ns#"
   xmlns:rdf="http://www.w3.org/1999/02/22-rdf-syntax-ns#"
   xmlns:svg="http://www.w3.org/2000/svg"
   xmlns="http://www.w3.org/2000/svg"
   xmlns:sodipodi="http://sodipodi.sourceforge.net/DTD/sodipodi-0.dtd"
   xmlns:inkscape="http://www.inkscape.org/namespaces/inkscape"
   viewBox="0 0 48 48"
   id="svg2"
   version="1.1"
   inkscape:version="0.48.4 r9939"
   width="100%"
   height="100%"
   sodipodi:docname="gelemental.svg">
  <metadata
     id="metadata85">
    <rdf:RDF>
      <cc:Work
         rdf:about="">
        <dc:format>image/svg+xml</dc:format>
        <dc:type
           rdf:resource="http://purl.org/dc/dcmitype/StillImage" />
      </cc:Work>
    </rdf:RDF>
  </metadata>
  <sodipodi:namedview
     pagecolor="#ffffff"
     bordercolor="#666666"
     borderopacity="1"
     objecttolerance="10"
     gridtolerance="10"
     guidetolerance="10"
     inkscape:pageopacity="0"
     inkscape:pageshadow="2"
     inkscape:window-width="1375"
     inkscape:window-height="876"
     id="namedview83"
     showgrid="false"
     inkscape:zoom="4.9166667"
     inkscape:cx="-0.20338983"
     inkscape:cy="24"
     inkscape:window-x="65"
     inkscape:window-y="24"
     inkscape:window-maximized="1"
     inkscape:current-layer="svg2" />
  <defs
     id="defs4">
    <linearGradient
       id="linearGradient3764"
       x1="1"
       x2="47"
       gradientUnits="userSpaceOnUse"
       gradientTransform="matrix(0,-1,1,0,-1.5e-6,47.999998)">
      <stop
         stop-color="#5e4973"
         stop-opacity="1"
         id="stop7" />
      <stop
         offset="1"
         stop-color="#685180"
         stop-opacity="1"
         id="stop9" />
    </linearGradient>
    <clipPath
       id="clipPath-198664120">
      <g
         transform="translate(0,-1004.3622)"
         id="g12">
        <path
           d="m -24 13 c 0 1.105 -0.672 2 -1.5 2 -0.828 0 -1.5 -0.895 -1.5 -2 0 -1.105 0.672 -2 1.5 -2 0.828 0 1.5 0.895 1.5 2 z"
           transform="matrix(15.333333,0,0,11.5,414.99999,878.8622)"
           fill="#1890d0"
           id="path14" />
      </g>
    </clipPath>
    <clipPath
       id="clipPath-206667731">
      <g
         transform="translate(0,-1004.3622)"
         id="g17">
        <path
           d="m -24 13 c 0 1.105 -0.672 2 -1.5 2 -0.828 0 -1.5 -0.895 -1.5 -2 0 -1.105 0.672 -2 1.5 -2 0.828 0 1.5 0.895 1.5 2 z"
           transform="matrix(15.333333,0,0,11.5,414.99999,878.8622)"
           fill="#1890d0"
           id="path19" />
      </g>
    </clipPath>
    <linearGradient
       id="linearGradient3764-3"
       x1="1"
       x2="47"
       gradientUnits="userSpaceOnUse"
       gradientTransform="matrix(0,-1,1,0,-1.5e-6,47.999998)">
      <stop
         stop-color="#b5945b"
         stop-opacity="1"
         id="stop7-1" />
      <stop
         offset="1"
         stop-color="#bb9e69"
         stop-opacity="1"
         id="stop9-3" />
    </linearGradient>
    <clipPath
       id="clipPath-899834956">
      <g
         transform="translate(0,-1004.3622)"
         id="g12-9">
        <path
           d="m -24 13 c 0 1.105 -0.672 2 -1.5 2 -0.828 0 -1.5 -0.895 -1.5 -2 0 -1.105 0.672 -2 1.5 -2 0.828 0 1.5 0.895 1.5 2 z"
           transform="matrix(15.333333,0,0,11.5,414.99999,878.8622)"
           fill="#1890d0"
           id="path14-6" />
      </g>
    </clipPath>
    <clipPath
       id="clipPath-909443126">
      <g
         transform="translate(0,-1004.3622)"
         id="g17-3">
        <path
           d="m -24 13 c 0 1.105 -0.672 2 -1.5 2 -0.828 0 -1.5 -0.895 -1.5 -2 0 -1.105 0.672 -2 1.5 -2 0.828 0 1.5 0.895 1.5 2 z"
           transform="matrix(15.333333,0,0,11.5,414.99999,878.8622)"
           fill="#1890d0"
           id="path19-36" />
      </g>
    </clipPath>
    <clipPath
       id="clipPath-909443126-7">
      <g
         transform="translate(0,-1004.3622)"
         id="g17-2">
        <path
           style="fill:#1890d0"
           inkscape:connector-curvature="0"
           d="m -24,13 c 0,1.105 -0.672,2 -1.5,2 -0.828,0 -1.5,-0.895 -1.5,-2 0,-1.105 0.672,-2 1.5,-2 0.828,0 1.5,0.895 1.5,2 z"
           transform="matrix(15.333333,0,0,11.5,414.99999,878.8622)"
           id="path19-3" />
      </g>
    </clipPath>
    <linearGradient
       id="linearGradient3759">
      <stop
         id="stop3761"
         offset="0"
         style="stop-color:#a75e15;stop-opacity:1;" />
      <stop
         id="stop3763"
         offset="1"
         style="stop-color:#ffffff;stop-opacity:0;" />
    </linearGradient>
    <linearGradient
       id="linearGradient3777">
      <stop
         id="stop3779"
         offset="0"
         style="stop-color:#e0dd00;stop-opacity:1;" />
      <stop
         id="stop3781"
         offset="1"
         style="stop-color:#000000;stop-opacity:0;" />
    </linearGradient>
    <clipPath
       id="clipPath-206667731-8">
      <g
         transform="translate(0,-1004.3622)"
         id="g17-0">
        <path
           style="fill:#1890d0"
           inkscape:connector-curvature="0"
           d="m -24,13 c 0,1.105 -0.672,2 -1.5,2 -0.828,0 -1.5,-0.895 -1.5,-2 0,-1.105 0.672,-2 1.5,-2 0.828,0 1.5,0.895 1.5,2 z"
           transform="matrix(15.333333,0,0,11.5,414.99999,878.8622)"
           id="path19-7" />
      </g>
    </clipPath>
  </defs>
  <g
     id="g33" />
  <g
     id="g3109">
    <g
       inkscape:label="shadows"
       id="layer2">
      <rect
         ry="13.03658"
         rx="13.03658"
         y="1"
         x="1"
         height="46"
         width="46"
         id="rect3007"
         style="opacity:0.1;fill:#000000;fill-opacity:1;fill-rule:nonzero;stroke:none" />
      <rect
         style="opacity:0.1;fill:#000000;fill-opacity:1;fill-rule:nonzero;stroke:none"
         id="rect3011"
         width="47"
         height="47"
         x="0.5"
         y="0.5"
         rx="13.319984"
         ry="13.319984" />
      <rect
         style="opacity:0.1;fill:#000000;fill-opacity:1;fill-rule:nonzero;stroke:none"
         id="rect3013"
         width="46.5"
         height="46.5"
         x="0.75"
         y="0.75"
         rx="13.178282"
         ry="13.178282" />
    </g>
    <g
       style="display:inline"
       inkscape:label="background-color"
       id="layer1">
      <rect
         transform="matrix(0,-1,1,0,0,0)"
         ry="12.753176"
         rx="12.753176"
         y="1.5"
         x="-46.5"
         height="45"
         width="45"
         id="rect2988"
         style="fill:#5e4973;fill-opacity:1;fill-rule:nonzero;stroke:none" />
    </g>
  </g>
  <g
     transform="translate(0.002,-0.008)"
     id="g59-1">
    <g
       clip-path="url(#clipPath-206667731-8)"
       id="g61-6">
      <!-- color: #685180 -->
      <g
         id="g63-2">
        <path
           style="fill:#c895e4;fill-opacity:1;fill-rule:nonzero;stroke:none"
           inkscape:connector-curvature="0"
           d="m 18.664,10 c 1.332,1.34 1.324,2.406 1.324,4.02 l 0,3.336 c -4.66,1.563 -7.992,5.77 -7.992,10.734 0,4.258 2.469,7.973 6.117,9.926 l 11.77,0 C 33.531,36.063 36,32.348 36,28.09 36,23.137 32.656,18.934 28,17.356 L 28,14.02 C 28,12.415 27.992,11.344 29.324,10 L 18.66,10 m 0.008,0"
           id="path65-6" />
        <path
           style="fill:#ff9228;fill-opacity:1;fill-rule:nonzero;stroke:none"
           inkscape:connector-curvature="0"
           d="M 13.25,23 C 12.449,24.523 12,26.242 12,28.063 c 0,4.254 2.477,7.984 6.125,9.938 l 11.75,0 C 33.523,36.048 36,32.317 36,28.063 36,26.243 35.551,24.524 34.75,23 m -21.5,0"
           id="path67-1" />
        <path
           style="fill:#f9f9f9;fill-opacity:1;fill-rule:nonzero;stroke:none"
           inkscape:connector-curvature="0"
           d="M 27,35.5 C 27,35.777 26.777,36 26.5,36 26.223,36 26,35.773 26,35.5 26,35.223 26.223,35 26.5,35 c 0.277,0 0.5,0.223 0.5,0.5 m 0,0"
           id="path69-1" />
        <path
           style="fill:#f9f9f9;fill-opacity:1;fill-rule:nonzero;stroke:none"
           inkscape:connector-curvature="0"
           d="M 25.5,33.25 C 25.5,33.664 25.164,34 24.75,34 24.336,34 24,33.664 24,33.25 c 0,-0.414 0.336,-0.75 0.75,-0.75 0.414,0 0.75,0.336 0.75,0.75 m 0,0"
           id="path71-1" />
        <path
           style="fill:#f9f9f9;fill-opacity:1;fill-rule:nonzero;stroke:none"
           inkscape:connector-curvature="0"
           d="m 27,30 c 0,0.551 -0.449,1 -1,1 -0.551,0 -1,-0.449 -1,-1 0,-0.555 0.449,-1 1,-1 0.551,0 1,0.449 1,1 m 0,0"
           id="path73-4" />
        <path
           style="fill:#f9f9f9;fill-opacity:1;fill-rule:nonzero;stroke:none"
           inkscape:connector-curvature="0"
           d="M 27,22.5 C 27,23.328 26.328,24 25.5,24 24.672,24 24,23.324 24,22.5 24,21.672 24.672,21 25.5,21 c 0.828,0 1.5,0.672 1.5,1.5 m 0,0"
           id="path75-6" />
        <path
           style="fill:#f9f9f9;fill-opacity:1;fill-rule:nonzero;stroke:none"
           inkscape:connector-curvature="0"
           d="M 24.5,26.75 C 24.5,27.441 23.941,28 23.25,28 22.559,28 22,27.437 22,26.75 c 0,-0.691 0.559,-1.25 1.25,-1.25 0.691,0 1.25,0.563 1.25,1.25 m 0,0"
           id="path77-5" />
      </g>
    </g>
  </g>
</svg>
